X:21
T:Wantoness for ever more
S:Petrie's Collection of Strathspey Reels and Country Dances &c., 1790
Z:Steve Wyrick <sjwyrick'at'gmail'dot'com>, 3/8/04
N:Petrie's First Collection, page 10
L:1/8
M:C
K:Bm
"^Slow"
   EFGA B2B2|BAFA {A}B4 |E2FG A3d | AFEF  D3 F |
   EFGA B2Bd|BAFA  B2 de|fdeB dBAF|{F2}B4 E4  :|
|:Tf3 e d2f2|e2 de B3^c |d3B  A2d2| AFEF  D2 de|
   f3 e d2f2|e2 de B2 de|fdeB dBAF| B4    E4  :|
"^Var."
|:(E/F/E/F/)(G/A/G/A/)  BfeB                |(B/c/B/A/)(F/E/F/A/) B4     |\
   EB,GE                AFdB                | AB/A/     FE        DdAF   |
  (E/F/E/F/)(G/A/G/A/) .B(bgf)              |(efg).f             (ed)(cB)|\
  .A(cBA)               BGAF                |{A}B4                E4    :|
|:(fgfe)                dDdf                | efed               ^cABc   |\
   dfdB                 AB^cd               | AGFE                DAde   |
  (fgfe)                d^cdf               | efde                B^cde  |\
   fd/f/     eB/e/     (d/^c/B/A/)(B/A/G/F/)| B4                  E4    :|
